X:59
T:Eau de Luce. JBi.58
M:C|
L:1/8
Q:1/4=130
C:Jig or Reel or Strathspey?
S:James Biggins MS, Leeds, 1779.
R:.Misc.
O:England
N:A difficult tune to shove into a pigeon hole,reminiscent in B part to
N:Sally Sloanes (jig),but triplets suggest whoever wrote it down had a
N:reel in mind
Z:vmp.Nick Barber & Chris Partington
K:F
((3Acf) ((3agf) e2f2|B>cA>B G/G/GG2|!
((3Acf) ((3agf) e2f2|A>BG>A F/F/FF2:|!
|:(3Acf (3Acf (3Bdf (3Bdf|(3Acf (3Acf a2f2|!
(3Acf (3Acf (3Bdf (3Bdf|(3def (3ece f2F2:|

